src/components/Icon/utils/svgsOptimized/table.svg

<svg width="24" height="24" viewBox="0 0 24 24"  xmlns="http://www.w3.org/2000/svg">
<path d="M17.3905 6H6.5995C6.26978 6 6 6.26978 6 6.5995V17.4005C6 17.7302 6.26978 18 6.5995 18H17.4005C17.7302 18 18 17.7302 18 17.4005V6.5995C18 6.26978 17.7302 6 17.4005 6H17.3905ZM16.791 9.597H12.5945V7.199H16.791V9.597ZM12.5945 10.796H16.791V13.194H12.5945V10.796ZM11.3955 13.194H7.199V10.796H11.3955V13.194ZM11.3955 7.199V9.597H7.199V7.199H11.3955ZM7.199 14.393H11.3955V16.791H7.199V14.393ZM12.5945 16.791V14.393H16.791V16.791H12.5945Z" />
</svg>

<?xml version="1.0" encoding="utf-8"?><svg width="24" height="24" xmlns="http://www.w3.org/2000/svg" viewBox="0 0 24 24"><path d="M17.39 6H6.6c-.33 0-.6.27-.6.6v10.8c0 .33.27.6.6.6h10.8c.33 0 .6-.27.6-.6V6.6c0-.33-.27-.6-.6-.6h-.01Zm-.599 3.597h-4.197V7.199h4.197v2.398Zm-4.197 1.199h4.197v2.398h-4.197v-2.398Zm-1.198 2.398H7.199v-2.398h4.197v2.398Zm0-5.995v2.398H7.199V7.199h4.197Zm-4.197 7.194h4.197v2.398H7.199v-2.398Zm5.396 2.398v-2.398h4.196v2.398h-4.197Z"/></svg>
